tools/download-figma-icons/icons/outlined-large/toy.svg

<svg width="64" height="64" viewBox="0 0 64 64" fill="none" xmlns="http://www.w3.org/2000/svg">
<path fill-rule="evenodd" clip-rule="evenodd" d="M7.68325 49.154C8.46125 48.38 9.23925 47.999 10.1142 47.999C10.7052 47.999 11.3402 48.172 12.0482 48.514C12.4312 48.698 12.8722 48.711 13.2642 48.552C13.6572 48.392 13.9642 48.073 14.1082 47.676L20.9032 29.014C21.0882 28.507 21.0352 27.934 20.6862 27.522C20.3382 27.112 19.8412 26.917 19.3132 27.013C19.2576 27.0158 19.1812 27.0134 19.0929 27.0106L19.0722 27.01L19.0619 27.0098C17.8534 26.9857 15.0735 26.9301 11.9962 29.785V24.5C11.9962 20 15.3822 20 16.4952 20C18.2172 20 18.9602 20.749 19.9112 21.708C20.1883 21.987 20.4299 22.2762 20.6613 22.5532L20.6862 22.583L20.6909 22.5885C21.5951 23.6636 22.7191 25 24.9932 25H34.4912C34.9002 25 35.2912 24.833 35.5742 24.538C35.8572 24.242 36.0072 23.845 35.9902 23.437C35.8192 19.431 35.4642 11.097 39.9012 6.465C41.8312 4.45 44.5482 3.306 47.9883 3.054V7.5C47.9883 7.785 48.0692 8.064 48.2222 8.306L54.5752 18.29L52.9943 19.872L43.7832 18.029C43.3532 17.944 42.9112 18.048 42.5672 18.316C42.2232 18.585 42.0122 18.989 41.9912 19.426C41.9472 20.312 41.7552 24.83 42.3112 26.622L42.4673 27.128C42.6113 27.607 42.7453 28.048 42.9482 28.6C44.6982 33.336 50.0402 47.59 50.0402 47.59C50.1802 47.967 50.4673 48.27 50.8343 48.434C51.2033 48.599 51.6202 48.608 51.9932 48.459C54.3222 47.543 55.4572 48.223 56.2902 49.053C56.2961 49.0589 56.3105 49.0737 56.3251 49.0888C56.3402 49.1045 56.3556 49.1204 56.3623 49.127C57.5643 50.343 56.7692 52.48 55.9862 53.336C55.9822 53.341 55.9783 53.345 55.9733 53.35C51.5373 58.318 40.3063 61 31.9923 61C24.3993 61 16.0732 59.324 12.1702 57.002L12.1673 57.0003C12.0632 56.9395 9.42861 55.4016 8.00025 53.528C7.20425 52.519 6.40725 50.446 7.68325 49.154ZM10.6592 59.593C15.0192 62.187 23.7912 64 31.9922 64C39.4242 64 52.5342 61.697 58.2052 55.354C59.8582 53.542 61.0923 49.645 58.5312 47.055C58.5163 47.04 58.4662 46.987 58.4512 46.973C56.7262 45.253 54.7222 44.666 52.3512 45.211C50.9862 41.566 47.1842 31.413 45.7612 27.562C45.5858 27.0819 45.4696 26.6961 45.3437 26.2781L45.3382 26.26L45.1772 25.73C44.9593 25.031 44.9062 23.087 44.9323 21.318L53.1932 22.971C53.6862 23.068 54.1932 22.916 54.5472 22.561L57.5472 19.561C58.0443 19.063 58.1292 18.288 57.7523 17.694L50.9872 7.063V1.5C50.9872 0.672 50.3153 0 49.4883 0C44.4803 0 40.5262 1.477 37.7352 4.389C32.9792 9.353 32.7852 17.227 32.9322 22H24.9932C24.1553 22 23.8232 21.654 22.9852 20.654L22.9772 20.6444C22.6876 20.3013 22.3849 19.9427 22.0302 19.585C20.9482 18.494 19.4662 17 16.4952 17C11.8012 17 8.99825 19.802 8.99725 24.499V24.5V33.4C8.99725 34.157 9.46425 34.811 10.1582 35.027C10.8482 35.24 11.6022 34.97 12.0312 34.352C14.0392 31.438 15.9142 30.468 17.2972 30.152L11.8052 45.233C9.49925 44.628 7.35925 45.24 5.52225 47.074C3.17525 49.449 3.80625 53.053 5.63025 55.366C7.43825 57.739 10.5512 59.531 10.6592 59.593ZM31.9923 51.0004C28.6013 51.0004 24.9933 49.7584 24.1063 48.9854L27.9543 39.0474C28.1994 38.4114 28.7853 38.0004 29.4443 38.0004H34.5543C35.2133 38.0004 35.7983 38.4114 36.0443 39.0434L39.8884 49.0864C38.8713 50.0184 34.2104 51.0004 31.9923 51.0004ZM21.8433 50.9564C23.5963 52.7764 28.5054 54.0004 31.9923 54.0004C33.5323 54.0004 39.9843 53.2694 42.1254 51.0784C42.8604 50.3254 43.0014 49.5534 42.9893 49.0394C42.9854 48.8674 42.9513 48.6974 42.8894 48.5374L38.8414 37.9654C38.1443 36.1644 36.4613 35.0004 34.5543 35.0004H29.4443C27.5364 35.0004 25.8524 36.1644 25.1573 37.9644L21.0963 48.4544C21.0364 48.6094 21.0023 48.7734 20.9963 48.9394C20.9774 49.4384 21.1094 50.1924 21.8433 50.9564Z" fill="black"/>
</svg>

<svg width="64" height="64" viewBox="0 0 64 64" fill="none" xmlns="http://www.w3.org/2000/svg"><path fill-rule="evenodd" clip-rule="evenodd" d="M7.683 49.154c.778-.774 1.556-1.155 2.431-1.155.591 0 1.226.173 1.934.515a1.502 1.502 0 0 0 2.06-.838l6.795-18.662c.185-.507.132-1.08-.217-1.492-.348-.41-.845-.605-1.373-.509-.055.003-.132 0-.22-.002l-.02-.001h-.011c-1.209-.024-3.989-.08-7.066 2.775V24.5c0-4.5 3.386-4.5 4.5-4.5 1.721 0 2.464.749 3.415 1.708.277.279.519.568.75.845l.025.03.005.006C21.595 23.663 22.719 25 24.993 25h9.498a1.5 1.5 0 0 0 1.5-1.563c-.172-4.006-.527-12.34 3.91-16.972 1.93-2.015 4.647-3.159 8.087-3.411V7.5c0 .285.081.564.234.806l6.353 9.984-1.58 1.582-9.212-1.843a1.5 1.5 0 0 0-1.792 1.397c-.044.886-.236 5.404.32 7.196l.156.506c.144.479.278.92.481 1.472 1.75 4.736 7.092 18.99 7.092 18.99a1.496 1.496 0 0 0 1.953.869c2.33-.916 3.464-.236 4.297.594a4.174 4.174 0 0 1 .072.074c1.202 1.216.407 3.353-.376 4.209a.164.164 0 0 1-.013.014C51.537 58.318 40.306 61 31.993 61c-7.594 0-15.92-1.676-19.823-3.998L12.167 57c-.104-.06-2.738-1.598-4.167-3.472-.796-1.009-1.593-3.082-.317-4.374Zm2.976 10.439C15.02 62.187 23.791 64 31.992 64c7.432 0 20.542-2.303 26.213-8.646 1.653-1.812 2.887-5.709.326-8.299l-.08-.082c-1.725-1.72-3.729-2.307-6.1-1.762a6674.534 6674.534 0 0 1-6.59-17.649c-.175-.48-.291-.866-.417-1.284l-.006-.018-.16-.53c-.219-.699-.272-2.643-.246-4.412l8.261 1.653a1.5 1.5 0 0 0 1.354-.41l3-3a1.502 1.502 0 0 0 .205-1.867L50.987 7.063V1.5A1.5 1.5 0 0 0 49.488 0c-5.008 0-8.962 1.477-11.753 4.389C32.98 9.353 32.785 17.227 32.932 22h-7.939c-.838 0-1.17-.346-2.008-1.346l-.008-.01c-.29-.343-.592-.701-.947-1.059C20.948 18.494 19.466 17 16.495 17c-4.694 0-7.497 2.802-7.498 7.499V33.4c0 .757.467 1.411 1.161 1.627.69.213 1.444-.057 1.873-.675 2.008-2.914 3.883-3.884 5.266-4.2l-5.492 15.081c-2.306-.605-4.446.007-6.283 1.841-2.347 2.375-1.716 5.979.108 8.292 1.808 2.373 4.921 4.165 5.03 4.227ZM31.992 51c-3.39 0-6.999-1.242-7.886-2.015l3.848-9.938A1.6 1.6 0 0 1 29.444 38h5.11c.66 0 1.244.411 1.49 1.043l3.844 10.043C38.871 50.018 34.21 51 31.992 51Zm-10.149-.044C23.596 52.776 28.505 54 31.993 54c1.54 0 7.991-.73 10.132-2.922.735-.753.876-1.525.864-2.039a1.486 1.486 0 0 0-.1-.502l-4.048-10.572c-.697-1.8-2.38-2.965-4.287-2.965h-5.11c-1.908 0-3.592 1.164-4.287 2.964l-4.06 10.49c-.06.155-.095.32-.1.485-.02.5.112 1.253.846 2.017Z" fill="currentColor"/></svg>
